assets/images/visa.svg

<?xml version="1.0" encoding="UTF-8" standalone="no"?>
<svg
   width="74.614433"
   height="22.967798"
   viewBox="0 0 74.614433 22.967798"
   fill="none"
   version="1.1"
   id="svg5"
   xmlns="http://www.w3.org/2000/svg"
   xmlns:svg="http://www.w3.org/2000/svg">
  <g
     clip-path="url(#clipPath7)"
     id="g5"
     transform="translate(-0.79296899,-26.0156)">
    <path
       d="m 30.6746,26.4023 -3.7918,22.2519 h 6.0644 l 3.795,-22.2519 z"
       fill="#272a32"
       id="path1" />
    <path
       d="M 21.7981,26.4266 15.8585,41.6017 15.2252,39.3104 C 14.0538,36.5495 10.7284,32.5846 6.82422,30.0858 l 5.43118,18.5567 6.4169,-0.0109 9.5506,-22.2097 z"
       fill="#272a32"
       id="path2" />
    <path
       d="M 12.9156,28.0148 C 12.5631,26.6594 11.5414,26.2554 10.2733,26.207 H 0.870958 L 0.792969,26.65 C 8.10991,28.425 12.9515,32.702 14.9605,37.8446 Z"
       fill="#272a32"
       id="path3" />
    <path
       d="m 49.0255,30.6638 c 1.984,-0.0312 3.4221,0.4024 4.5389,0.8516 l 0.5475,0.2574 0.8205,-4.8229 c -1.2011,-0.4507 -3.0837,-0.9343 -5.4328,-0.9343 -5.9926,0 -10.2165,3.0182 -10.2493,7.3435 -0.039,3.196 3.0088,4.9804 5.3111,6.0457 2.363,1.0918 3.1554,1.786 3.1445,2.7608 -0.0187,1.4896 -1.8842,2.1728 -3.6265,2.1728 -2.4286,0 -3.7185,-0.3354 -5.7104,-1.1652 l -0.7814,-0.3556 -0.8532,4.9804 c 1.4194,0.6223 4.0383,1.1573 6.757,1.1854 6.3748,0 10.5176,-2.9823 10.5612,-7.6039 0.0266,-2.5284 -1.5909,-4.4579 -5.0958,-6.0411 -2.1213,-1.0325 -3.419,-1.7188 -3.4065,-2.7608 0,-0.9249 1.1012,-1.9138 3.4752,-1.9138 z"
       fill="#272a32"
       id="path4" />
    <path
       d="m 70.5003,26.4258 h -4.6856 c -1.4553,0 -2.5378,0.3962 -3.1773,1.8468 l -9.0046,20.3926 h 6.3686 c 0,0 1.0388,-2.7421 1.2743,-3.3427 0.6973,0 6.8849,0.0094 7.7662,0.0094 0.1809,0.7768 0.7393,3.3333 0.7393,3.3333 h 5.6262 z M 63.0211,40.768 c 0.4992,-1.2775 2.4161,-6.2189 2.4161,-6.2189 -0.0327,0.0609 0.4945,-1.2868 0.808,-2.1244 l 0.4087,1.9185 c 0,0 1.162,5.3127 1.4053,6.4248 z"
       fill="#272a32"
       id="path5" />
  </g>
  <defs
     id="defs5">
    <clipPath
       clipPathUnits="userSpaceOnUse"
       id="clipPath7">
      <rect
         style="opacity:0.448413;fill:#b3b3b3;stroke-width:0.940032;paint-order:fill markers stroke"
         id="rect7"
         width="75.810814"
         height="23.37838"
         x="0.27027026"
         y="25.675676" />
    </clipPath>
  </defs>
</svg>

<?xml version="1.0" encoding="UTF-8" standalone="no"?>
<svg
   width="76"
   height="75"
   viewBox="0 0 76 75"
   fill="none"
   version="1.1"
   id="svg5"
   sodipodi:docname="visa.svg"
   inkscape:export-filename="visa_white.svg"
   inkscape:export-xdpi="96"
   inkscape:export-ydpi="96"
   inkscape:version="1.3.2 (091e20ef0f, 2023-11-25, custom)"
   xmlns:inkscape="http://www.inkscape.org/namespaces/inkscape"
   xmlns:sodipodi="http://sodipodi.sourceforge.net/DTD/sodipodi-0.dtd"
   xmlns="http://www.w3.org/2000/svg"
   xmlns:svg="http://www.w3.org/2000/svg">
  <sodipodi:namedview
     id="namedview5"
     pagecolor="#ffffff"
     bordercolor="#000000"
     borderopacity="0.25"
     inkscape:showpageshadow="2"
     inkscape:pageopacity="0.0"
     inkscape:pagecheckerboard="0"
     inkscape:deskcolor="#d1d1d1"
     inkscape:zoom="7.4"
     inkscape:cx="38.040541"
     inkscape:cy="37.5"
     inkscape:window-width="1366"
     inkscape:window-height="732"
     inkscape:window-x="0"
     inkscape:window-y="0"
     inkscape:window-maximized="1"
     inkscape:current-layer="svg5" />
  <g
     clip-path="url(#clip0_475_160)"
     id="g5"
     style="fill:#ffffff">
    <path
       d="M30.6746 26.4023L26.8828 48.6542H32.9472L36.7422 26.4023H30.6746Z"
       fill="#272A32"
       id="path1"
       style="fill:#ffffff" />
    <path
       d="M21.7981 26.4266L15.8585 41.6017L15.2252 39.3104C14.0538 36.5495 10.7284 32.5846 6.82422 30.0858L12.2554 48.6425L18.6723 48.6316L28.2229 26.4219L21.7981 26.4266Z"
       fill="#272A32"
       id="path2"
       style="fill:#ffffff" />
    <path
       d="M12.9156 28.0148C12.5631 26.6594 11.5414 26.2554 10.2733 26.207H0.870958L0.792969 26.65C8.10991 28.425 12.9515 32.702 14.9605 37.8446L12.9156 28.0148Z"
       fill="#272A32"
       id="path3"
       style="fill:#ffffff" />
    <path
       d="M49.0255 30.6638C51.0095 30.6326 52.4476 31.0662 53.5644 31.5154L54.1119 31.7728L54.9324 26.9499C53.7313 26.4992 51.8487 26.0156 49.4996 26.0156C43.507 26.0156 39.2831 29.0338 39.2503 33.3591C39.2113 36.5551 42.2591 38.3395 44.5614 39.4048C46.9244 40.4966 47.7168 41.1908 47.7059 42.1656C47.6872 43.6552 45.8217 44.3384 44.0794 44.3384C41.6508 44.3384 40.3609 44.003 38.369 43.1732L37.5876 42.8176L36.7344 47.798C38.1538 48.4203 40.7727 48.9553 43.4914 48.9834C49.8662 48.9834 54.009 46.0011 54.0526 41.3795C54.0792 38.8511 52.4617 36.9216 48.9568 35.3384C46.8355 34.3059 45.5378 33.6196 45.5503 32.5776C45.5503 31.6527 46.6515 30.6638 49.0255 30.6638Z"
       fill="#272A32"
       id="path4"
       style="fill:#ffffff" />
    <path
       d="M70.5003 26.4258H65.8147C64.3594 26.4258 63.2769 26.822 62.6374 28.2726L53.6328 48.6652H60.0014C60.0014 48.6652 61.0402 45.9231 61.2757 45.3225C61.973 45.3225 68.1606 45.3319 69.0419 45.3319C69.2228 46.1087 69.7812 48.6652 69.7812 48.6652H75.4074L70.5003 26.4258ZM63.0211 40.768C63.5203 39.4905 65.4372 34.5491 65.4372 34.5491C65.4045 34.61 65.9317 33.2623 66.2452 32.4247L66.6539 34.3432C66.6539 34.3432 67.8159 39.6559 68.0592 40.768H63.0211Z"
       fill="#272A32"
       id="path5"
       style="fill:#ffffff" />
  </g>
  <defs
     id="defs5">
    <clipPath
       id="clip0_475_160">
      <rect
         width="74.6106"
         height="74.6106"
         fill="white"
         transform="translate(0.796875 0.195312)"
         id="rect5" />
    </clipPath>
  </defs>
</svg>
